src/assets/svg/collapse-side-hover.svg

<svg width="30" height="30" viewBox="0 0 30 30" fill="none" xmlns="http://www.w3.org/2000/svg">
<rect opacity="0.2" x="30" width="30" height="30" rx="3" transform="rotate(90 30 0)" fill="#95959D"/>
<path d="M14.8789 19.1348C14.5391 19.4746 13.9882 19.4745 13.6484 19.1348L9.01367 14.5L13.6484 9.86523C13.9882 9.52545 14.5391 9.52545 14.8789 9.86523C15.2187 10.205 15.2187 10.7559 14.8789 11.0957L11.4746 14.5L14.8789 17.9043C15.2187 18.2441 15.2187 18.795 14.8789 19.1348Z" fill="white"/>
<path d="M20.5098 19.1348C20.17 19.4746 19.6191 19.4745 19.2793 19.1348L14.6445 14.5L19.2793 9.86523C19.6191 9.52545 20.17 9.52545 20.5098 9.86523C20.8496 10.205 20.8496 10.7559 20.5098 11.0957L17.1055 14.5L20.5098 17.9043C20.8496 18.2441 20.8496 18.795 20.5098 19.1348Z" fill="white"/>
</svg>

<!-- Generated by IcoMoon.io -->
<svg version="1.1" xmlns="http://www.w3.org/2000/svg" width="30" height="30" viewBox="0 0 30 30">
<title>collapse-side-hover</title>
<path fill="#95959d" opacity="0.2" d="M30 3v24c0 1.657-1.343 3-3 3h-24c-1.657 0-3-1.343-3-3v-24c0-1.657 1.343-3 3-3h24c1.657 0 3 1.343 3 3z"></path>
<path fill="#fff" d="M14.879 19.135c-0.34 0.34-0.891 0.34-1.23 0l-4.635-4.635 4.635-4.635c0.34-0.34 0.891-0.34 1.23 0s0.34 0.891 0 1.23l-3.404 3.404 3.404 3.404c0.34 0.34 0.34 0.891 0 1.23z"></path>
<path fill="#fff" d="M20.51 19.135c-0.34 0.34-0.891 0.34-1.23 0l-4.635-4.635 4.635-4.635c0.34-0.34 0.891-0.34 1.23 0s0.34 0.891 0 1.23l-3.404 3.404 3.404 3.404c0.34 0.34 0.34 0.891 0 1.23z"></path>
</svg>
